X: 12073
T: Esther's
R: jig
M: 6/8
K: Amajor
|:EAB c3|cBc dcA|=G3 dcA|F3 ABA|
EAB c3|cBc cde|=gdd gfe|1 fdd d3:|2 fdd d2 c||
|:Bee edB|cee ecA|Bee edB|cAA d2 c|
Bee edB|Cee ecA|GBd edB|1 cAA A2 c:|2 cAF AFD||

